public/logos/chanel.svg

<svg width="122" height="92" viewBox="0 0 122 92" fill="none"
  xmlns="http://www.w3.org/2000/svg">
  <path fill-rule="evenodd" clip-rule="evenodd" d="M60.7897 76.0585C55.8852 78.8943 50.0179 80.5799 43.7666 80.5799C30.976 80.5799 19.7732 73.6068 13.714 63.2672C13.714 63.2192 13.6671 63.2192 13.6671 63.1712C13.6671 63.1232 13.6179 63.1232 13.6179 63.0751L18.5226 60.5274L23.4271 58.0254C23.4763 58.0757 23.5254 58.1215 23.5723 58.2198C27.7555 64.9985 35.2573 69.5199 43.7666 69.5199C46.5094 69.5199 49.1536 69.0396 51.5099 68.2689C46.2681 62.2587 43.0944 54.3731 43.0944 45.7648C43.0944 37.2068 46.2212 29.3212 51.4139 23.2606C49.0576 22.4442 46.4602 22.0119 43.7666 22.0119C35.3534 22.0119 27.5634 26.5311 23.2842 33.7923C23.235 33.8403 23.235 33.8906 23.235 33.9364L13.3789 28.8409C13.4258 28.7449 13.475 28.6488 13.5218 28.5985C19.5342 18.0691 30.88 11 43.7666 11C50.0179 11 55.8852 12.6832 60.7897 15.5694C65.6942 12.6832 71.5615 11 77.8105 11C90.6973 11 102.045 18.0691 108.056 28.5985C108.104 28.6488 108.152 28.7449 108.2 28.8409L98.3428 33.9364C98.3428 33.8906 98.3428 33.8403 98.2947 33.7923C94.0158 26.5311 86.2262 22.0119 77.8105 22.0119C75.1191 22.0119 72.5218 22.4442 70.1655 23.2606C75.3581 29.3212 78.4849 37.2068 78.4849 45.7648C78.4849 54.3731 75.3112 62.2587 70.0694 68.2689C72.4257 69.0396 75.07 69.5199 77.8105 69.5199C86.3223 69.5199 93.8236 64.9985 98.0066 58.2198C98.0546 58.1215 98.1026 58.0757 98.1507 58.0254L103.054 60.5274L107.96 63.0751C107.96 63.1232 107.912 63.1232 107.912 63.1712C107.912 63.2192 107.864 63.2192 107.864 63.2672C101.805 73.6068 90.6013 80.5799 77.8105 80.5799C71.5615 80.5799 65.6942 78.8943 60.7897 76.0585ZM60.7897 62.2587C56.7495 57.9797 54.1542 52.1615 54.1542 45.7648C54.1542 39.4664 56.6065 33.7443 60.7897 29.4653C64.9728 33.7443 67.4252 39.4664 67.4252 45.7648C67.4252 52.1615 64.8276 57.9797 60.7897 62.2587Z" fill="white"/>
</svg>

<svg version="1.2" xmlns="http://www.w3.org/2000/svg" viewBox="13.3789 11 94.8211 69.5799" ><style></style><path fill-rule="evenodd" d="m60.8 76.1c-4.9 2.8-10.8 4.5-17 4.5-12.8 0-24-7-30.1-17.3 0-0.1 0-0.1 0-0.1 0-0.1-0.1-0.1-0.1-0.1l4.9-2.6 4.9-2.5q0.1 0.1 0.2 0.2c4.2 6.8 11.7 11.3 20.2 11.3 2.7 0 5.4-0.5 7.7-1.2-5.2-6-8.4-13.9-8.4-22.5 0-8.6 3.1-16.5 8.3-22.5-2.3-0.9-4.9-1.3-7.6-1.3-8.4 0-16.2 4.5-20.5 11.8q-0.1 0.1-0.1 0.1l-9.8-5.1q0.1-0.1 0.1-0.2c6-10.5 17.4-17.6 30.3-17.6 6.2 0 12.1 1.7 17 4.6 4.9-2.9 10.8-4.6 17-4.6 12.9 0 24.2 7.1 30.3 17.6q0 0.1 0.1 0.2l-9.9 5.1q0.1 0 0-0.1c-4.3-7.3-12.1-11.8-20.5-11.8-2.7 0-5.3 0.4-7.6 1.3 5.2 6 8.3 13.9 8.3 22.5 0 8.6-3.2 16.5-8.4 22.5 2.3 0.7 5 1.2 7.7 1.2 8.5 0 16-4.5 20.2-11.3q0.1-0.1 0.2-0.2l4.9 2.5 4.9 2.6c0 0-0.1 0-0.1 0.1 0 0 0 0 0 0.1-6.1 10.3-17.3 17.3-30.1 17.3-6.2 0-12.1-1.7-17-4.5zm0-13.8c-4.1-4.3-6.6-10.1-6.6-16.5 0-6.3 2.4-12.1 6.6-16.3 4.2 4.2 6.6 10 6.6 16.3 0 6.4-2.6 12.2-6.6 16.5z"/></svg>
